Newaita/actions/22/edit-clone.svg

<svg height="22" viewBox="0 0 22 22" width="22" xmlns="http://www.w3.org/2000/svg"><g fill="#424242"><path d="m8.1875 3.808594c-1.007812 0-1.820312.8125-1.820312 1.820312v12.734375c0 1.007813.8125 1.820313 1.820312 1.820313h4.546875v-1.820313h-3.636719c-.503906 0-.902344-.40625-.910156-.910156v-10.914063c0-.503906.40625-.910156.910156-.910156h3.636719v-.003906h1.449219l3.105468 3.109375v1.441406s0 0-.003906 0v1.820313h1.820313v-.910156c0-.042969 0-.082032-.003907-.125v-2.601563c0-.242187-.09375-.472656-.265624-.640625l-3.636719-3.640625c-.171875-.167969-.402344-.261719-.640625-.261719h-1.824219v-.007812zm0 0"/><path d="m4.546875 1.082031c-1.007813 0-1.808594.8125-1.816406 1.820313v11.824218c0 1.007813.808593 1.816407 1.816406 1.816407h.910156v-1.816407c-.503906 0-.902343-.40625-.910156-.910156v-10.007812c0-.503906.40625-.90625.910156-.90625h3.640625v-.007813h1.445313l.003906.007813h2.5625l-1.550781-1.550782c-.167969-.171874-.398438-.265624-.640625-.265624h-1.820313v-.003907zm0 0"/><path d="m17.28125 13.816406c-1.007812 0-1.816406.8125-1.816406 1.820313v.90625c-.503906 0-.910156.40625-.910156.910156v1.820313c0 .503906.40625.910156.910156.910156h3.636718c.503907 0 .910157-.40625.910157-.910156v-1.820313c0-.503906-.40625-.910156-.910157-.910156v-.90625c0-1.007813-.8125-1.820313-1.820312-1.820313zm0 .910156c.503906 0 .910156.40625.910156.910157v.90625h-1.820312v-.90625c0-.503907.40625-.910157.910156-.910157zm0 0"/></g></svg>

<?xml version="1.0" encoding="UTF-8"?>
<svg xmlns="http://www.w3.org/2000/svg" xmlns:xlink="http://www.w3.org/1999/xlink" width="22px" height="22px" viewBox="0 0 22 22" version="1.1">
<g id="surface1">
<path style=" stroke:none;fill-rule:nonzero;fill:rgb(25.882354%,25.882354%,25.882354%);fill-opacity:1;" d="M 8.1875 3.808594 C 7.179688 3.808594 6.367188 4.621094 6.367188 5.628906 L 6.367188 18.363281 C 6.367188 19.371094 7.179688 20.183594 8.1875 20.183594 L 12.734375 20.183594 L 12.734375 18.363281 L 9.097656 18.363281 C 8.59375 18.363281 8.195312 17.957031 8.1875 17.453125 L 8.1875 6.539062 C 8.1875 6.035156 8.59375 5.628906 9.097656 5.628906 L 12.734375 5.628906 L 12.734375 5.625 L 14.183594 5.625 L 17.289062 8.734375 L 17.289062 10.175781 C 17.289062 10.175781 17.289062 10.175781 17.285156 10.175781 L 17.285156 11.996094 L 19.105469 11.996094 L 19.105469 11.085938 C 19.105469 11.042969 19.105469 11.003906 19.101562 10.960938 L 19.101562 8.359375 C 19.101562 8.117188 19.007812 7.886719 18.835938 7.71875 L 15.199219 4.078125 C 15.027344 3.910156 14.796875 3.816406 14.558594 3.816406 L 12.734375 3.816406 L 12.734375 3.808594 Z M 8.1875 3.808594 "/>
<path style=" stroke:none;fill-rule:nonzero;fill:rgb(25.882354%,25.882354%,25.882354%);fill-opacity:1;" d="M 4.546875 1.082031 C 3.539062 1.082031 2.738281 1.894531 2.730469 2.902344 L 2.730469 14.726562 C 2.730469 15.734375 3.539062 16.542969 4.546875 16.542969 L 5.457031 16.542969 L 5.457031 14.726562 C 4.953125 14.726562 4.554688 14.320312 4.546875 13.816406 L 4.546875 3.808594 C 4.546875 3.304688 4.953125 2.902344 5.457031 2.902344 L 9.097656 2.902344 L 9.097656 2.894531 L 10.542969 2.894531 L 10.546875 2.902344 L 13.109375 2.902344 L 11.558594 1.351562 C 11.390625 1.179688 11.160156 1.085938 10.917969 1.085938 L 9.097656 1.085938 L 9.097656 1.082031 Z M 4.546875 1.082031 "/>
<path style=" stroke:none;fill-rule:nonzero;fill:rgb(25.882354%,25.882354%,25.882354%);fill-opacity:1;" d="M 17.28125 13.816406 C 16.273438 13.816406 15.464844 14.628906 15.464844 15.636719 L 15.464844 16.542969 C 14.960938 16.542969 14.554688 16.949219 14.554688 17.453125 L 14.554688 19.273438 C 14.554688 19.777344 14.960938 20.183594 15.464844 20.183594 L 19.101562 20.183594 C 19.605469 20.183594 20.011719 19.777344 20.011719 19.273438 L 20.011719 17.453125 C 20.011719 16.949219 19.605469 16.542969 19.101562 16.542969 L 19.101562 15.636719 C 19.101562 14.628906 18.289062 13.816406 17.28125 13.816406 Z M 17.28125 14.726562 C 17.785156 14.726562 18.191406 15.132812 18.191406 15.636719 L 18.191406 16.542969 L 16.371094 16.542969 L 16.371094 15.636719 C 16.371094 15.132812 16.777344 14.726562 17.28125 14.726562 Z M 17.28125 14.726562 "/>
</g>
</svg>
